X:1
T:Title
%%score { ( 1 4 5 ) | ( 2 3 6 ) }
L:1/8
M:4/4
K:A
V:1 treble nm="Grand Piano"
V:4 treble 
V:5 treble 
V:2 bass 
V:3 bass 
V:6 bass 
V:1
 z4 z2[Q:1/4=92] E>E | [Ec]2 c=c ^c A3 | z .A3 z4 | [CA]2 AA [CA] d2 c | c B2 F B3 E/E/ | %5
 [Ec]2 c=c ^c A2 B | z .A3 z4 | [FA]2 z2 z4 |[M:7/8] c2 c>[DB] [CA]3 |[M:1/8] [CE] | %10
[M:4/4] [Ec]2 [Ec][Ec] [Ec] [CA]2 [DB] | [Ec] [A,FA]2 [A,DF] [CE]3 [A,CE] | %12
[M:9/8] [CEA]2 [CEA] [CEA][CEA][Fd]- [Fd]2 [Ec] |[M:4/4] [^Dc] [DB]2 [DF] B3 E | %14
 [Ec] [Ec]2 [^D=c] [E^c] [CA]2 [=DB] | [Ec] [A,FA]2 [A,DF] [CE]3 [A,CA] | %16
 [A,FA]2 [A,EG][A,DF] [A,CE] [A,EA]2 [FB] |[M:3/4] c c2 B [CA]2 |] %18
V:2
 z4 z2 C>C | z2 E^D E C3 | A,- [A,-F]2 [A,-D] [A,,A,]2 z C | %3
 E,2- [E,-C][E,C] z[K:treble] F2[K:bass] E | ^D D2 D =D3 C/C/ | z2 E^D E C2 =D | %6
 A,- [A,-F]2 [A,-D] [A,,A,]2 z C/C/ | z2 ED z C2 D/D/ |[M:7/8] [A,E]2 [G,E]2 [A,,A,]3 | %9
[M:1/8] [A,,A,] |[M:4/4] [A,,A,]2 [A,,A,][A,,A,] [A,,A,] [A,,A,]2 [A,,A,] | %11
 [A,,A,] D,2 F, A,3 A,, |[M:9/8] A,,2 A,, A,,A,,[A,,A,]- [A,,A,]2 [A,,A,] | %13
[M:4/4] [B,,A,] [B,,A,]2 [B,,A,] [E,G,E]3 [E,G,] | %14
 [A,,A,] [A,,A,]2 [A,,A,] [A,,A,] [A,,A,]2 [A,,A,] | [A,,A,] D,2 F, A,3 A,, | %16
 D,2 D,D, A,, C,2 [D,A,] |[M:3/4] [E,A,E] [E,A,E]2 [E,G,D] [A,,A,]2 |] %18
V:3
 x8 | [A,,A,]6 z2 | A,,2 z2 z4 | z4 A,2[K:treble] z2[K:bass] | [F,A,]4 [E,G,]2 z2 | [A,,A,]6 z2 | %6
 A,,2 z2 z4 | D,4 E,2 z2 |[M:7/8] E,- E,3 z z2 |[M:1/8] x |[M:4/4] x8 | x8 |[M:9/8] x9 | %13
[M:4/4] x8 | x8 | x8 | x8 |[M:3/4] x6 |] %18
V:4
 x8 | x8 | .[Ec]2 z F [CE]3 E | x8 | x8 | x8 | .[Ec]2 z F [CE]3 A/A/ | %7
 A,2- [A,-G][A,-F] [A,-CE][A,A-] AB/B/ |[M:7/8] x7 |[M:1/8] x |[M:4/4] x8 | x8 |[M:9/8] x9 | %13
[M:4/4] x8 | x8 | x8 | x8 |[M:3/4] x6 |] %18
V:5
 x8 | x8 | z2 D,2 z4 | x8 | x8 | x8 | z2 D,2 z4 | x8 |[M:7/8] x7 |[M:1/8] x |[M:4/4] x8 | x8 | %12
[M:9/8] x9 |[M:4/4] x8 | x8 | x8 | x8 |[M:3/4] x6 |] %18
V:6
 x8 | x8 | x8 | A,,6[K:treble] z2[K:bass] | x8 | x8 | x8 | x8 |[M:7/8] x7 |[M:1/8] x |[M:4/4] x8 | %11
 x8 |[M:9/8] x9 |[M:4/4] x8 | x8 | x8 | x8 |[M:3/4] x6 |] %18

